d2 $ midinote "1 1 1 1" # s "fh"

d1 $ silence

"50bd ~ ~ ~" 

d3 $ slow 2 $ chunk 4 ( fast 2 ) $bite 4 "<[[1 0] 2 ~ 3 [4 3] ~ 2 4] [[1 3] ~ 4 ~ [4 3] [4 1] ~ 4]>" $ arp "up" $ n "df1'maj7 bf1'maj7" # s "fh" # midichan 0


d4 $ slow 2 $ n "df1 bf1" # s "fh" # midichan 1

d4 $ slow 2 $ n "df1 bf1" # s "fh" # midichan 1

d3 $ silence

once $ jux (# speed "1.09") $ s "future" # gain 1.2

hush

d11 $ midinote "4 4 4 4" # s "fh"
